X: 1
T: The Midlothian Pipe Band
C: Farquhar Beaton
R: March
M: 6/8
L: 1/8
K: D
|:fe|d2A def|ABA ABA|f2f fed|efe ABc|
d2A def|BGB B2g|fga ABc| d3 d:|
|:ag|f2f fed|efe efg|a2a f2e|dBB B2g|
[1 f2f fed|efe efg|fga ABc| d3 d :|
[2 fga efg|fed B2g|fga ABc| d3 d |